public/placeholder/tes.svg

<svg width="1280" height="800" fill="none" xmlns="http://www.w3.org/2000/svg"><path d="M952.933 435.931c4.822-.236 8.69-3.218 11.071-7.337 2.608-4.554 3.246-9.984 3.854-15.184a3117.42 3117.42 0 0 1-3.043-.248c-.259 9.488 7.135 18.389 16.329 19.793.041-1.041.081-2.082.148-3.128-6.012-.4-9.314 5.405-11.147 10.423-2.541 6.943-4.509 14.165-6.736 21.187.988.088 1.977.175 2.985.232a110.881 110.881 0 0 0-2.388-14.31c-1.07-4.624-2.296-9.469-4.389-13.728-.722-1.451-2.982-.707-2.578.89 1.173 4.604 2.857 9.082 3.926 13.706a111.656 111.656 0 0 1 2.382 14.031c.172 1.643 2.539 1.631 2.986.232 2.009-6.42 4.013-12.868 6.048-19.294 1.292-4.047 3.619-10.613 8.757-10.268 1.966.123 2.071-2.83.148-3.128-7.515-1.114-13.612-8.647-13.428-16.39.067-2.023-2.803-2.221-3.043-.248-.942 7.973-2.807 18.973-12.086 20.49-1.2.177-1.077 2.331.204 2.279zm-13.145 23.875c.828 3.642.013 7.293-1.911 10.32-1.677 2.672-4.789 5.566-8.147 5.628-1.933.039-2.5 2.608-.591 3.441 6.721 2.977 8.224 12.021 9.213 18.482.272 1.848 2.93 1.921 3.434.286 2.275-7.315 6.82-13.505 12.943-17.791 1.169-.813.4-2.593-.678-3.083-5.713-2.557-9.801-8.642-10.033-14.97-.043-2.284-3.483-2.597-3.414-.318.204 8.038 5.153 15.466 12.417 18.701l-.677-3.083c-6.588 4.628-11.474 11.47-13.928 19.323 1.152.085 2.309.197 3.434.287-1.221-8.009-3.53-17.653-11.664-21.167-.049 1.127-.092 2.282-.141 3.409 4.208-1.345 7.741-3.425 10.115-7.35 2.213-3.67 2.957-8.258 1.775-12.53-.39-1.406-2.465-1.032-2.147.415zm-552.813-24.533c.592 2.603.009 5.212-1.365 7.376-1.2 1.91-3.424 3.978-5.823 4.023-1.382.027-1.788 1.864-.423 2.459 4.804 2.127 5.878 8.592 6.585 13.21.194 1.321 2.094 1.373 2.454.204 1.626-5.228 4.874-9.652 9.251-12.716.836-.581.286-1.853-.485-2.204-4.083-1.827-7.005-6.176-7.17-10.699-.032-1.632-2.49-1.856-2.44-.228.145 5.746 3.683 11.055 8.875 13.367l-.485-2.204c-4.708 3.308-8.201 8.199-9.954 13.812.823.06 1.65.14 2.454.204-.873-5.724-2.523-12.617-8.337-15.128-.035.805-.066 1.63-.1 2.436 3.007-.961 5.533-2.448 7.229-5.253 1.582-2.624 2.114-5.903 1.269-8.956-.279-1.005-1.762-.738-1.535.297zm-11.477-198.012c1.261 8.166-3.054 16.097-10.301 19.115-1.469.613-.413 2.943 1.049 2.656 1.426-.255 2.606 1.861 3.225 2.902a48.549 48.549 0 0 1 3.205 6.171c1.837 4.191 3.055 8.661 3.704 13.168.213 1.55 2.81 1.352 2.66-.212-.651-7.865 2.264-15.524 7.932-20.567.835-.746.149-2.142-.881-2.255-2.323-.212-4.53-1.376-6.217-3.123-1.778-1.841-2.568-4-3.161-6.436-.299-1.275-2.143-1.087-2.154.19-.071 2.98 1.631 6.02 3.691 8.099 2.151 2.173 4.91 3.583 7.877 3.879-.299-.742-.577-1.49-.881-2.254-6.143 5.36-9.545 13.825-8.871 22.31.896-.065 1.786-.152 2.661-.213a54.385 54.385 0 0 0-4.648-15.408c-1.081-2.255-2.263-4.556-3.789-6.548-1.259-1.635-3.008-2.835-5.05-2.462.359.891.691 1.765 1.049 2.656 8.014-3.331 12.833-13.23 10.736-22.063-.3-1.275-2.035-.833-1.836.395zm364.805 59.517c.506-12.312 4.726-24.116 11.854-33.691 3.57-4.766 7.67-9.11 12.468-12.607a51.175 51.175 0 0 1 7.488-4.641c2.316-1.186 5.204-2.572 7.946-1.991 3.212.643 4.421 4.314 5.291 7.137.871 2.822 1.586 5.733 1.913 8.701.634 5.565.203 11.652-3.193 16.088-1.175 1.538-2.984 3.528-4.722 1.597-1.402-1.552-1.961-4.082-1.827-6.092.319-6.009 4.28-11.444 8.109-15.48 5.209-5.488 11.474-9.989 17.69-14.195a177.318 177.318 0 0 1 22.015-12.676c3.198-1.563.178-6.489-2.991-4.98-8.148 3.925-15.95 8.416-23.368 13.603-6.445 4.503-13.023 9.323-18.285 15.248-4.449 5.001-8.823 11.957-8.55 19.218.195 5.448 3.941 12.858 10.206 11.601 6.697-1.327 9.63-10.435 10.187-16.555.617-6.841-.852-14.486-3.614-20.844-7.451-16.994-27.314-.664-34.604 7.121-10.765 11.491-17.218 27.232-17.687 43.53-.015 2.261 3.6 2.278 3.674-.092zM390.836 400.76c-8.232-2.885-17.273-3.158-25.748-.905-4.224 1.137-8.335 2.737-12.106 5.026a40.61 40.61 0 0 0-5.349 3.785c-1.49 1.236-3.288 2.802-3.751 4.785-.567 2.313 1.469 4.081 3.053 5.401 1.583 1.32 3.272 2.56 5.119 3.555 3.455 1.881 7.58 3.186 11.535 2.08 1.371-.382 3.233-1.07 2.501-2.736-.587-1.342-2.074-2.377-3.434-2.814-4.04-1.36-8.824-.138-12.649 1.362-5.203 2.042-10.084 5.047-14.756 8.097a140.738 140.738 0 0 0-15.089 11.382c-2.01 1.726-4.312-1.58-2.347-3.301 5.082-4.413 10.429-8.447 16.115-12.043 4.937-3.125 10.123-6.255 15.629-8.218 4.65-1.661 10.558-2.761 15.237-.678 3.514 1.556 7.222 5.997 4.468 9.852-2.931 4.124-9.807 3.698-13.993 2.468-4.677-1.379-9.24-4.361-12.561-7.869-8.854-9.424 7.971-18.414 15.321-21.243 10.85-4.18 23.161-4.368 33.996-.415 1.488.581.387 3-1.191 2.429zm506.354 56.441c-11.157-1.738-22.105-3.619-33.466-5.148a978.942 978.942 0 0 0-34.26-3.954 1152.599 1152.599 0 0 0-71.139-4.707c-48.133-1.73-97.327-.842-146.198 2.747a1277.511 1277.511 0 0 0-40.299 3.578c-6.853.73-13.704 1.493-20.55 2.321-7.064.84-14.213 1.489-21.112 2.615-6.827 1.122-5.173 6.367 2.038 5.55 11.897-1.353 23.54-3.249 35.439-4.57 11.897-1.354 23.806-2.512 35.797-3.543a1358.234 1358.234 0 0 1 72.004-4.194 1326.305 1326.305 0 0 1 142.093 3.295c12.851.983 25.497 2.175 38.152 3.497 13.168 1.39 26.406 2.743 39.102 4.686 3.008.446 5.481-1.699 2.399-2.173zM856.688 244.07c.428-4.872.45-10.077 1.571-14.858 1.098-4.735 1.277-9.912 1.739-14.795.909-9.913 1.84-19.872 2.75-29.785-1.452-.163-2.87-.336-4.321-.499 2.71 16.554 8.311 32.519 16.461 47.313l3.406-3.003a364.062 364.062 0 0 1-31.611-25.579c-.239 1.373-.511 2.757-.75 4.131 11.795-2.655 23.731-4.665 35.8-5.951-.653-1.403-1.34-2.796-1.994-4.199l-14.372 19.008c-4.702 6.27-9.987 12.338-14.002 19.123-1.299 2.16 1.972 4.244 3.578 2.562 2.695-2.821 4.928-6.034 7.296-9.174 2.368-3.141 4.714-6.236 7.082-9.377 4.714-6.236 9.428-12.471 14.13-18.742 1.151-1.503.199-4.457-1.994-4.199a329.288 329.288 0 0 0-37.056 6.262c-1.779.397-2.069 2.934-.75 4.131a364.9 364.9 0 0 0 31.701 25.514c2.171 1.545 4.798-.491 3.406-3.003-7.772-13.994-13.13-29.232-15.906-44.886-.193-1.125-.862-2.026-2.046-2.157-.993-.113-2.2.566-2.275 1.659-.786 9.952-1.528 19.928-2.314 29.88-.192 2.391-.318 4.762-.477 7.143-.159 2.38-.518 4.823-.409 7.235.179 5.258-.434 10.455-.858 15.67-.159 1.501 2.101 2.102 2.215.576zm267.702 71.913c2.23-1.945 4.45-3.908 6.64-5.904 2.18-1.973 4.54-3.853 6.57-5.965 1.35-1.401-.62-3.262-2.1-2.107-2.29 1.823-4.38 3.992-6.54 5.978-2.17 2.01-4.34 4.02-6.48 6.062-1.27 1.224.59 3.071 1.91 1.936zm5.1 12.229c3.18-.407 6.37-.795 9.57-1.009a97.93 97.93 0 0 1 4.83-.191c1.47-.022 3.25.288 4.63-.248.95-.368.61-1.637-.14-1.976-.78-.334-1.65-.257-2.47-.248-.74.013-1.47.022-2.21.054-1.64.056-3.29.154-4.93.308-3.25.283-6.48.739-9.65 1.497-1.18.259-.82 1.955.37 1.813z" fill="#fff"/></svg>

<svg width="1280" height="800" viewBox="0 0 1280 800" fill="none" xmlns="http://www.w3.org/2000/svg">
<path d="M952.933 435.931C957.755 435.695 961.623 432.713 964.004 428.594C966.612 424.04 967.25 418.61 967.858 413.41C966.844 413.328 965.829 413.245 964.815 413.162C964.556 422.65 971.95 431.551 981.144 432.955C981.185 431.914 981.225 430.873 981.292 429.827C975.28 429.427 971.978 435.232 970.145 440.25C967.604 447.193 965.636 454.415 963.409 461.437C964.397 461.525 965.386 461.612 966.394 461.669C965.907 456.876 965.124 452.085 964.006 447.359C962.936 442.735 961.71 437.89 959.617 433.631C958.895 432.18 956.635 432.924 957.039 434.521C958.212 439.125 959.896 443.603 960.965 448.227C962.06 452.846 962.851 457.551 963.347 462.258C963.519 463.901 965.886 463.889 966.333 462.49C968.342 456.07 970.346 449.622 972.381 443.196C973.673 439.149 976 432.583 981.138 432.928C983.104 433.051 983.209 430.098 981.286 429.8C973.771 428.686 967.674 421.153 967.858 413.41C967.925 411.387 965.055 411.189 964.815 413.162C963.873 421.135 962.008 432.135 952.729 433.652C951.529 433.829 951.652 435.983 952.933 435.931Z" fill="white"/>
<path d="M939.788 459.806C940.616 463.448 939.801 467.099 937.877 470.126C936.2 472.798 933.088 475.692 929.73 475.754C927.797 475.793 927.23 478.362 929.139 479.195C935.86 482.172 937.363 491.216 938.352 497.677C938.624 499.525 941.282 499.598 941.786 497.963C944.061 490.648 948.606 484.458 954.729 480.172C955.898 479.359 955.129 477.579 954.051 477.089C948.338 474.532 944.25 468.447 944.018 462.119C943.975 459.835 940.535 459.522 940.604 461.801C940.808 469.839 945.757 477.267 953.021 480.502C952.797 479.483 952.568 478.438 952.344 477.419C945.756 482.047 940.87 488.889 938.416 496.742C939.568 496.827 940.725 496.939 941.85 497.029C940.629 489.02 938.32 479.376 930.186 475.862C930.137 476.989 930.094 478.144 930.045 479.271C934.253 477.926 937.786 475.846 940.16 471.921C942.373 468.251 943.117 463.663 941.935 459.391C941.545 457.985 939.47 458.359 939.788 459.806Z" fill="white"/>
<path d="M386.975 435.273C387.567 437.876 386.984 440.485 385.61 442.649C384.41 444.559 382.186 446.627 379.787 446.672C378.405 446.699 377.999 448.536 379.364 449.131C384.168 451.258 385.242 457.723 385.949 462.341C386.143 463.662 388.043 463.714 388.403 462.545C390.029 457.317 393.277 452.893 397.654 449.829C398.49 449.248 397.94 447.976 397.169 447.625C393.086 445.798 390.164 441.449 389.999 436.926C389.967 435.294 387.509 435.07 387.559 436.698C387.704 442.444 391.242 447.753 396.434 450.065C396.273 449.337 396.109 448.59 395.949 447.861C391.241 451.169 387.748 456.06 385.995 461.673C386.818 461.733 387.645 461.813 388.449 461.877C387.576 456.153 385.926 449.26 380.112 446.749C380.077 447.554 380.046 448.379 380.012 449.185C383.019 448.224 385.545 446.737 387.241 443.932C388.823 441.308 389.355 438.029 388.51 434.976C388.231 433.971 386.748 434.238 386.975 435.273Z" fill="white"/>
<path d="M375.498 237.261C376.759 245.427 372.444 253.358 365.197 256.376C363.728 256.989 364.784 259.319 366.246 259.032C367.672 258.777 368.852 260.893 369.471 261.934C370.68 263.905 371.759 265.975 372.676 268.105C374.513 272.296 375.731 276.766 376.38 281.273C376.593 282.823 379.19 282.625 379.04 281.061C378.389 273.196 381.304 265.537 386.972 260.494C387.807 259.748 387.121 258.352 386.091 258.239C383.768 258.027 381.561 256.863 379.874 255.116C378.096 253.275 377.306 251.116 376.713 248.68C376.414 247.405 374.57 247.593 374.559 248.87C374.488 251.85 376.19 254.89 378.25 256.969C380.401 259.142 383.16 260.552 386.127 260.848C385.828 260.106 385.55 259.358 385.246 258.594C379.103 263.954 375.701 272.419 376.375 280.904C377.271 280.839 378.161 280.752 379.036 280.691C378.272 275.376 376.686 270.156 374.388 265.283C373.307 263.028 372.125 260.727 370.599 258.735C369.34 257.1 367.591 255.9 365.549 256.273C365.908 257.164 366.24 258.038 366.598 258.929C374.612 255.598 379.431 245.699 377.334 236.866C377.034 235.591 375.299 236.033 375.498 237.261Z" fill="white"/>
<path d="M740.303 296.778C740.809 284.466 745.029 272.662 752.157 263.087C755.727 258.321 759.827 253.977 764.625 250.48C766.997 248.716 769.517 247.146 772.113 245.839C774.429 244.653 777.317 243.267 780.059 243.848C783.271 244.491 784.48 248.162 785.35 250.985C786.221 253.807 786.936 256.718 787.263 259.686C787.897 265.251 787.466 271.338 784.07 275.774C782.895 277.312 781.086 279.302 779.348 277.371C777.946 275.819 777.387 273.289 777.521 271.279C777.84 265.27 781.801 259.835 785.63 255.799C790.839 250.311 797.104 245.81 803.32 241.604C810.367 236.846 817.705 232.62 825.335 228.928C828.533 227.365 825.513 222.439 822.344 223.948C814.196 227.873 806.394 232.364 798.976 237.551C792.531 242.054 785.953 246.874 780.691 252.799C776.242 257.8 771.868 264.756 772.141 272.017C772.336 277.465 776.082 284.875 782.347 283.618C789.044 282.291 791.977 273.183 792.534 267.063C793.151 260.222 791.682 252.577 788.92 246.219C781.469 229.225 761.606 245.555 754.316 253.34C743.551 264.831 737.098 280.572 736.629 296.87C736.614 299.131 740.229 299.148 740.303 296.778Z" fill="white"/>
<path d="M390.836 400.76C382.604 397.875 373.563 397.602 365.088 399.855C360.864 400.992 356.753 402.592 352.982 404.881C351.094 406.003 349.29 407.275 347.633 408.666C346.143 409.902 344.345 411.468 343.882 413.451C343.315 415.764 345.351 417.532 346.935 418.852C348.518 420.172 350.207 421.412 352.054 422.407C355.509 424.288 359.634 425.593 363.589 424.487C364.96 424.105 366.822 423.417 366.09 421.751C365.503 420.409 364.016 419.374 362.656 418.937C358.616 417.577 353.832 418.799 350.007 420.299C344.804 422.341 339.923 425.346 335.251 428.396C329.961 431.856 324.931 435.65 320.162 439.778C318.152 441.504 315.85 438.198 317.815 436.477C322.897 432.064 328.244 428.03 333.93 424.434C338.867 421.309 344.053 418.179 349.559 416.216C354.209 414.555 360.117 413.455 364.796 415.538C368.31 417.094 372.018 421.535 369.264 425.39C366.333 429.514 359.457 429.088 355.271 427.858C350.594 426.479 346.031 423.497 342.71 419.989C333.856 410.565 350.681 401.575 358.031 398.746C368.881 394.566 381.192 394.378 392.027 398.331C393.515 398.912 392.414 401.331 390.836 400.76Z" fill="white"/>
<path d="M897.19 457.201C886.033 455.463 875.085 453.582 863.724 452.053C852.437 450.552 841.017 449.223 829.464 448.099C806.141 445.83 782.426 444.239 758.325 443.392C710.192 441.662 660.998 442.55 612.127 446.139C598.681 447.125 585.175 448.311 571.828 449.717C564.975 450.447 558.124 451.21 551.278 452.038C544.214 452.878 537.065 453.527 530.166 454.653C523.339 455.775 524.993 461.02 532.204 460.203C544.101 458.85 555.744 456.954 567.643 455.633C579.54 454.279 591.449 453.121 603.44 452.09C627.352 450.063 651.376 448.653 675.444 447.896C723.438 446.423 771.172 447.62 817.537 451.191C830.388 452.174 843.034 453.366 855.689 454.688C868.857 456.078 882.095 457.431 894.791 459.374C897.799 459.82 900.272 457.675 897.19 457.201Z" fill="white"/>
<path d="M856.688 244.07C857.116 239.198 857.138 233.993 858.259 229.212C859.357 224.477 859.536 219.3 859.998 214.417C860.907 204.504 861.838 194.545 862.748 184.632C861.296 184.469 859.878 184.296 858.427 184.133C861.137 200.687 866.738 216.652 874.888 231.446C876.023 230.445 877.159 229.444 878.294 228.443C867.3 220.53 856.755 211.98 846.683 202.864C846.444 204.237 846.172 205.621 845.933 206.995C857.728 204.34 869.664 202.33 881.733 201.044C881.08 199.641 880.393 198.248 879.739 196.845C874.949 203.181 870.158 209.517 865.367 215.853C860.665 222.123 855.38 228.191 851.365 234.976C850.066 237.136 853.337 239.22 854.943 237.538C857.638 234.717 859.871 231.504 862.239 228.364C864.607 225.223 866.953 222.128 869.321 218.987C874.035 212.751 878.749 206.516 883.451 200.245C884.602 198.742 883.65 195.788 881.457 196.046C868.977 197.421 856.596 199.53 844.401 202.308C842.622 202.705 842.332 205.242 843.651 206.439C853.758 215.545 864.324 224.049 875.352 231.953C877.523 233.498 880.15 231.462 878.758 228.95C870.986 214.956 865.628 199.718 862.852 184.064C862.659 182.939 861.99 182.038 860.806 181.907C859.813 181.794 858.606 182.473 858.531 183.566C857.745 193.518 857.003 203.494 856.217 213.446C856.025 215.837 855.899 218.208 855.74 220.589C855.581 222.969 855.222 225.412 855.331 227.824C855.51 233.082 854.897 238.279 854.473 243.494C854.314 244.995 856.574 245.596 856.688 244.07Z" fill="white"/>
<path d="M1124.39 315.983C1126.62 314.038 1128.84 312.075 1131.03 310.079C1133.21 308.106 1135.57 306.226 1137.6 304.114C1138.95 302.713 1136.98 300.852 1135.5 302.007C1133.21 303.83 1131.12 305.999 1128.96 307.985C1126.79 309.995 1124.62 312.005 1122.48 314.047C1121.21 315.271 1123.07 317.118 1124.39 315.983Z" fill="white"/>
<path d="M1129.49 328.212C1132.67 327.805 1135.86 327.417 1139.06 327.203C1140.67 327.094 1142.29 327.041 1143.89 327.012C1145.36 326.99 1147.14 327.3 1148.52 326.764C1149.47 326.396 1149.13 325.127 1148.38 324.788C1147.6 324.454 1146.73 324.531 1145.91 324.54C1145.17 324.553 1144.44 324.562 1143.7 324.594C1142.06 324.65 1140.41 324.748 1138.77 324.902C1135.52 325.185 1132.29 325.641 1129.12 326.399C1127.94 326.658 1128.3 328.354 1129.49 328.212Z" fill="white"/>
</svg>
